X: 1
T:Garry Owen
M:6/8
L:1/8
Q:80
C:March
S:
K:HP
|: gf|
{gef}edB{gBd}BA{d}G|
{g}B2{GdGe}B{gBG}Bgf|  !
{gef}edB{gBd}BA{d}G|
{g}A2{GdGe}A{GAG}Agf|
{gef}edB{gBd}BA{d}G|  !
{g}B2{GdGe}B{gBG}B2c|
{Gdc}defgdB|
{g}A2{GdGe}A{GAG}A:| |:  !
B|
{Gdc}d2{e}B{Gdc}d2{e}B|
{Gdc}d2{e}B{Gdc}dgf|
{gef}e2d{gef}e2d|  !
{gef}e2d{gef}e2f|
gfgag{a}e|
{gef}edB{Gdc}d3|  !
{gdG}defgdB|
{g}A2{GdGe}A{GAG}A2:|
